X: 30
T:Woodland Revels
% Nottingham Music Database
S:via PR
M:4/4
L:1/4
K:Em
"Em"E3/2c/2 "B7"B2|"Em"EG/2c/2 "B7"B2|"C"cc ec|"G"B3/2c/2 "B7"B/2A/2G/2F/2|\
"Em"E3/2c/2 "B7"B2|
"Em"EG/2c/2 "B7"B2|"A7"AA B^c|"D7"d2 d2|"Em"E3/2c/2 "B7"B2|"Em"EG/2c/2 "B7"B2|\
"C"cc ec|
"G"B3B|"C"cc "G"B3/2B/2|"C"cc "G"B2|"B7"BB/2c/2 B/2A/2G/2F/2|"Em"E2 "D7"D2||
"G"GB/2e/2 d2|G/2B/2d/2e/2 d2|"G"GB "Em"cB|"Am"Ae e2|"Am"A3/2B/2 c3/2B/2|\
"Am"A3/2B/2 c3/2B/2|
"Am"Ac "D7"BA|"G"Ge "D7"d2|"G"GB/2e/2 d2|G/2B/2d/2e/2 d2|"G"GB "Em"cB|\
"Am"Ae e2|
"C"ec ec|"G"dB d3/2d/2|"Am"d/2c/2B/2A/2 "D7"G/2F/2G/2A/2|"G"Bd "C"gf/2e/2||
"G"d2 d^c/2d/2|"G7"ed BG|"C"E/2G_E/2 "Cm"GA|"G"B2 "D7"Bc|"G"d2 d^c/2d/2|
"Em"ed BG|"A7"E/2AE/2 AB|"D7"AF ED|"G"d2 d^c/2d/2|"G7"ed BG|
"C"E/2G_E/2 "Cm"GA|"G"B3d|"C"e3/2e/2 fe|"G"dB2d|"Am7"e2 "D7"f2|"G"g4||<end>
<start>
